icons/folder-luau-open.svg

<svg width="32" height="32" viewBox="0 0 32 32" fill="none" xmlns="http://www.w3.org/2000/svg">
<path d="M28.967 12H9.442C9.02207 11.9999 8.61276 12.132 8.2721 12.3775C7.93143 12.6231 7.6767 12.9696 7.544 13.368L4 24V10H28C28 9.46957 27.7893 8.96086 27.4142 8.58579C27.0391 8.21071 26.5304 8 26 8H15.124C14.6562 7.99979 14.2033 7.8356 13.844 7.536L12.556 6.464C12.1967 6.1644 11.7438 6.00021 11.276 6H4C3.46957 6 2.96086 6.21071 2.58579 6.58579C2.21071 6.96086 2 7.46957 2 8V24C2 24.5304 2.21071 25.0391 2.58579 25.4142C2.96086 25.7893 3.46957 26 4 26H26L30.805 14.788C30.9354 14.4838 30.9883 14.152 30.9589 13.8224C30.9295 13.4927 30.8187 13.1755 30.6366 12.8992C30.4544 12.6229 30.2065 12.3961 29.9151 12.2391C29.6237 12.0822 29.298 12 28.967 12Z" fill="#42A5F5"/>
<path fill-rule="evenodd" clip-rule="evenodd" d="M18.3812 12L31 15.3812L27.6188 28L15 24.6188L18.3812 12ZM26.4762 15.8596L29 16.5359L28.3237 19.0596L25.8 18.3834L26.4762 15.8596Z" fill="#B3E5FC"/>
</svg>

<svg xmlns="http://www.w3.org/2000/svg" fill="none" viewBox="0 0 32 32"><path fill="#42A5F5" d="M28.967 12H9.442a2 2 0 0 0-1.898 1.368L4 24V10h24a2 2 0 0 0-2-2H15.124a2 2 0 0 1-1.28-.464l-1.288-1.072A2 2 0 0 0 11.276 6H4a2 2 0 0 0-2 2v16a2 2 0 0 0 2 2h22l4.805-11.212A2 2 0 0 0 28.967 12"/><path fill="#B3E5FC" fill-rule="evenodd" d="M18.381 12 31 15.381 27.619 28 15 24.619zm8.095 3.86 2.524.676-.676 2.524-2.524-.677z" clip-rule="evenodd"/></svg>
